X:1
T:Lord, Show Me What It Means
T:Lord, Show Me What It Means
T:Scott Werdebaugh
T:Scott Werdebaugh, 1997
T:Public Domain Courtesy of the Cyber Hymnal™
T:Public Domain Courtesy of the Cyber Hymnal™
C:Scott Werdebaugh
Z:Public Domain
Z:Courtesy of the Cyber Hymnal™
%%score ( 1 2 ) ( 3 4 ) ( 5 6 ) ( 7 8 )
L:1/8
Q:1/4=112
M:4/4
K:C
V:1 treble 
V:2 treble 
V:3 bass 
V:4 bass 
V:5 treble 
V:6 treble 
V:7 bass 
V:8 bass 
V:1
"^Prayerfully"!mp! [EG]4 [EG]2 [EG]2 | [CA]3 [CA] [DA]2 [DA]2 | [DG]3 [DG] [DG]2 [DF]2 | [CE]8 | %4
w: Lord, show me|what it means to|have a hum- ble|heart.|
 [EG]4 [EG]2 [EG]2 x2 | [CA]3 [CA] [DA]2 [DA]2 | [^FA]3 [FA] [GB]2 [Fc]2 | [DB]6 | [=FG]2 | %9
w: Lord, show me|what it means to|love the world like|You.|Lord,|
 [Ec]3 [Fc] [Gc]2 [EB]2 x | [CA]6 [CA]2 | [^Fd]3 [Gd] [Ad]2 [Fc]2 x3 | [DB]6 | [FG]2 | %14
w: show me what it|means to|give my life a-|way.|Lord,|
 [Ec]3 [Fc] [Gc]2 [EG]2 x | [FA]6 [CF]2 | [CE]3 [CF] [CE]2 [B,D]2 | C8 |] %18
w: show me what it|means to|love You more each|day.|
V:2
 x8 | x8 | x8 | x8 | x10 | x8 | x8 | x6 | x2 | x9 | x8 | x11 | x6 | x2 | x9 | x8 | x8 | C8 |] %18
V:3
!mp! [C,G,]4 [E,B,]2 [E,B,]2 | [F,A,]3 [F,A,] [D,F,]2 [D,F,]2 | [B,,G,]3 [C,G,] [D,B,]2 [B,,G,]2 | %3
 [C,G,]8 | [C,G,]4 [E,B,]2 [E,B,]2 x2 | [F,A,]3 [F,A,] [D,F,]2 [D,F,]2 | %6
 [D,A,]3 [D,A,] [G,,G,]2 [D,A,]2 | [G,B,]6 | [D,G,]2 | [C,G,]3 [D,G,] [E,G,]2 [C,G,]2 x | %10
 [F,A,]6 [E,A,]2 | [D,A,]3 [E,A,] [^F,A,]2 [D,A,]2 x3 | [D,G,]6 | [B,,G,]2 | %14
 [C,G,]3 [D,G,] [E,G,]2 [C,G,]2 x | [C,F,]6 [D,A,]2 | G,3 [F,A,] [C,G,]2 [G,,F,]2 | [C,E,]8 |] %18
V:4
 x8 | x8 | x8 | x8 | x10 | x8 | x8 | x6 | x2 | x9 | x8 | x11 | x6 | x2 | x9 | x8 | G,3 x5 | x8 |] %18
V:5
!p! [EG]4 G2 G2 | A3 A A2 A2 | G3 G G2 F2 | [CE]8 | [EG]4 G2 G2 x2 | A3 A A2 A2 | %6
 A3 A [GB]2 [=Fc]2 | [DB]6 | [=FG]2 | [Ec]3 [Fc] [Gc]2 [EB]2 x | [CA]6 [CA]2 | %11
 [^Fd]3 [Gd] [Ad]2 [Fc]2 x3 | [DB]6 | [FG]2 | [Ec]3 [Fc] [Gc]2 [EG]2 x | [FA]6 [CF]2 | %16
 E3 F [CE]2 [B,D]2 | C8 |] %18
V:6
 x4 E4 | C4 D4 | D4 D4 | x8 | x4 E4 x2 | C4 D4 | ^F4 x4 | x6 | x2 | x9 | x8 | x11 | x6 | x2 | x9 | %15
 x8 | C4 x4 | C8 |] %18
V:7
!p! [C,G,]4 B,2 B,2 | A,3 A, F,2 F,2 | G,4 [D,B,]2 [B,,G,]2 | [C,G,]8 | [C,G,]4 B,4 E,2 | %5
 A,3 A, F,2 F,2 | A,3 A, [G,,G,]2 [D,A,]2 | [G,B,]6 | [D,G,]2 | G,4 D, G,4 | [F,A,]6 [E,A,]2 | %11
 A,4 E, A,4 D,2 | [D,G,]6 | [B,,G,]2 | G,4 D, G,4 | [C,F,]6 [D,A,]2 | G,3 [F,A,] [C,G,]2 [G,,F,]2 | %17
 [C,E,]8 |] %18
V:8
 x4 E,4 | F,4 D,4 | B,,3 C, x4 | x8 | x4 E,2 x4 | F,4 D,4 | D,4 x4 | x6 | x2 | C,3 E,2 C,2 x2 | %10
 x8 | D,3 ^F,2 x6 | x6 | x2 | C,3 E,2 C,2 x2 | x8 | G,3 x5 | x8 |] %18

